svg/map/compass_line.svg

<?xml version="1.0" encoding="UTF-8"?>
<svg width="24px" height="24px" viewBox="0 0 24 24" version="1.1" xmlns="http://www.w3.org/2000/svg" xmlns:xlink="http://www.w3.org/1999/xlink">
    <title>compass_line</title>
    <g id="页面-1" stroke="none" stroke-width="1" fill="none" fill-rule="evenodd">
        <g id="Map" transform="translate(-48.000000, 0.000000)" fill-rule="nonzero">
            <g id="compass_line" transform="translate(48.000000, 0.000000)">
                 <path d="M24,0 L24,24 L0,24 L0,0 L24,0 Z M12.5934901,23.257841 L12.5819402,23.2595131 L12.5108777,23.2950439 L12.4918791,23.2987469 L12.4918791,23.2987469 L12.4767152,23.2950439 L12.4056548,23.2595131 C12.3958229,23.2563662 12.3870493,23.2590235 12.3821421,23.2649074 L12.3780323,23.275831 L12.360941,23.7031097 L12.3658947,23.7234994 L12.3769048,23.7357139 L12.4804777,23.8096931 L12.4953491,23.8136134 L12.4953491,23.8136134 L12.5071152,23.8096931 L12.6106902,23.7357139 L12.6232938,23.7196733 L12.6232938,23.7196733 L12.6266527,23.7031097 L12.609561,23.275831 C12.6075724,23.2657013 12.6010112,23.2592993 12.5934901,23.257841 L12.5934901,23.257841 Z M12.8583906,23.1452862 L12.8445485,23.1473072 L12.6598443,23.2396597 L12.6498822,23.2499052 L12.6498822,23.2499052 L12.6471943,23.2611114 L12.6650943,23.6906389 L12.6699349,23.7034178 L12.6699349,23.7034178 L12.678386,23.7104931 L12.8793402,23.8032389 C12.8914285,23.8068999 12.9022333,23.8029875 12.9078286,23.7952264 L12.9118235,23.7811639 L12.8776777,23.1665331 C12.8752882,23.1545897 12.8674102,23.1470016 12.8583906,23.1452862 L12.8583906,23.1452862 Z M12.1430473,23.1473072 C12.1332178,23.1423925 12.1221763,23.1452606 12.1156365,23.1525954 L12.1099173,23.1665331 L12.0757714,23.7811639 C12.0751323,23.7926639 12.0828099,23.8018602 12.0926481,23.8045676 L12.108256,23.8032389 L12.3092106,23.7104931 L12.3186497,23.7024347 L12.3186497,23.7024347 L12.3225043,23.6906389 L12.340401,23.2611114 L12.337245,23.2485176 L12.337245,23.2485176 L12.3277531,23.2396597 L12.1430473,23.1473072 Z" id="MingCute" fill-rule="nonzero"></path>
                <path d="M12,2 C17.5228,2 22,6.47715 22,12 C22,17.5228 17.5228,22 12,22 C6.47715,22 2,17.5228 2,12 C2,6.47715 6.47715,2 12,2 Z M12,4 C7.58172,4 4,7.58172 4,12 C4,16.4183 7.58172,20 12,20 C16.4183,20 20,16.4183 20,12 C20,7.58172 16.4183,4 12,4 Z M16.9498,7.05024 C17.3451231,7.44552923 17.3465876,8.03012976 17.2862468,8.56077817 L17.2492,8.84341 L17.2492,8.84341 C17.0893,9.96276 16.6438,11.6176 16.0074,12.9986 C15.6973,13.6714 15.3066,14.3503 14.8285,14.8284 C14.3504,15.3065 13.6715,15.6972 12.9987,16.0073 C11.6177,16.6437 9.96283,17.0892 8.84348,17.2491 L8.56132853,17.2858644 C8.03077059,17.3454071 7.44254462,17.3419769 7.05031,16.9497 C6.69372538,16.5931615 6.65848988,16.0746112 6.69973321,15.5846727 L6.73169771,15.295668 C6.73790172,15.2485811 6.74438077,15.2021615 6.75089,15.1566 C6.9108,14.0372 7.3563,12.3823 7.99275,11.0014 C8.30284,10.3285 8.6935,9.64968 9.17163,9.17156 C9.64975,8.69343 10.3286,8.30277 11.0014,7.99268 C12.3824,7.35623 14.0373,6.91073 15.1566,6.75082 L15.4392512,6.71376968 C15.9699213,6.6534316 16.5544769,6.65494231 16.9498,7.05024 Z M15.2377,8.76238 C14.3298,8.91654 12.9153,9.31284 11.8386,9.80906 C11.2408,10.0845 10.8148,10.3568 10.5858,10.5858 C10.3569,10.8148 10.0846,11.2408 9.80913,11.8385 C9.31291,12.9152 8.91661,14.3298 8.76246,15.2376 C9.67028,15.0834 11.0848,14.6871 12.1615,14.1909 C12.7593,13.9154 13.1853,13.6432 13.4143,13.4142 C13.6432,13.1852 13.9155,12.7592 14.191,12.1615 C14.6872,11.0848 15.0835,9.67021 15.2377,8.76238 Z M12,11 C12.5523,11 13,11.4477 13,12 C13,12.5523 12.5523,13 12,13 C11.4477,13 11,12.5523 11,12 C11,11.4477 11.4477,11 12,11 Z" id="形状" fill="#09244B"></path>
            </g>
        </g>
    </g>
</svg>

<svg xmlns="http://www.w3.org/2000/svg" width="24" height="24"><g fill="none" fill-rule="nonzero"><path d="M24 0v24H0V0h24ZM12.593 23.258l-.011.002-.071.035-.02.004-.014-.004-.071-.035c-.01-.004-.019-.001-.024.005l-.004.01-.017.428.005.02.01.013.104.074.015.004.012-.004.104-.074.012-.016.004-.017-.017-.427c-.002-.01-.009-.017-.017-.018Zm.265-.113-.013.002-.185.093-.01.01-.003.011.018.43.005.012.008.007.201.093c.012.004.023 0 .029-.008l.004-.014-.034-.614c-.003-.012-.01-.02-.02-.022Zm-.715.002a.023.023 0 0 0-.027.006l-.006.014-.034.614c0 .012.007.02.017.024l.015-.002.201-.093.01-.008.004-.011.017-.43-.003-.012-.01-.01-.184-.092Z"/><path fill="#09244B" d="M12 2c5.523 0 10 4.477 10 10s-4.477 10-10 10S2 17.523 2 12 6.477 2 12 2Zm0 2a8 8 0 1 0 0 16 8 8 0 0 0 0-16Zm4.95 3.05c.395.396.397.98.336 1.51l-.037.283c-.16 1.12-.605 2.775-1.242 4.156-.31.672-.7 1.351-1.179 1.83-.478.477-1.156.868-1.83 1.178-1.38.637-3.035 1.082-4.155 1.242l-.282.037c-.53.06-1.118.056-1.51-.336-.357-.357-.393-.875-.351-1.365l.032-.29.019-.138c.16-1.12.605-2.775 1.242-4.156.31-.672.7-1.351 1.179-1.83.478-.478 1.157-.868 1.83-1.178 1.38-.637 3.035-1.082 4.155-1.242l.282-.037c.53-.06 1.115-.06 1.51.336Zm-1.712 1.712c-.908.155-2.323.55-3.4 1.047-.597.276-1.023.548-1.252.777-.23.229-.501.655-.777 1.252-.496 1.077-.892 2.492-1.047 3.4.908-.155 2.323-.55 3.4-1.047.597-.276 1.023-.548 1.252-.777.23-.229.502-.655.777-1.252.496-1.077.893-2.492 1.047-3.4ZM12 11a1 1 0 1 1 0 2 1 1 0 0 1 0-2Z"/></g></svg>
